!!!!SEGMENT: Ric1003d-Missa_Veni_sponsa_Christi-Sanctus
!!!id: Ric1003d
!!!AGN: Mass; Sanctus
!!!voices: 2-4
!!!OPR: Missa Veni sponsa Christi
!!!COM: Jean Richafort
!!!OTL: Sanctus
**kern	**kern	**kern	**kern
*part4	*part3	*part2	*part1
*staff4	*staff3	*staff2	*staff1
*I"Bassus	*I"Tenor	*I"Altus	*I"Superius
*I'B	*I'T	*I'A	*I'S
*clefF4	*clefGv2	*clefG2	*clefG2
*k[b-]	*k[b-]	*k[b-]	*k[b-]
*F:	*F:	*F:	*F:
*M2/1	*M2/1	*M2/1	*M2/1
*met(C|)	*met(C|)	*met(C|)	*met(C|)
=1	=1	=1	=1
!!section: Sanctus
!!!OMD: Sanctus
0r	0r	0r	0cc
=2	=2	=2	=2
0r	0r	2r	1a
.	.	1f	.
.	.	.	1cc
.	.	2e	.
=3	=3	=3	=3
0r	0r	2f	1.dd
.	.	2g	.
.	.	2d	.
.	.	[2f	2cc
=4	=4	=4	=4
2r	0r	2f]	1cc
1F	.	4e	.
.	.	4d	.
.	.	2c	2r
2E	.	2e	[2cc
=5	=5	=5	=5
2F	0r	1.d	4cc]
.	.	.	4a
2G	.	.	2b-y
2D	.	.	2a
[2F	.	2c	2f
=6	=6	=6	=6
2F]	0c	2.c	1.a
4E	.	.	.
4D	.	4d	.
2C	.	4e	.
.	.	4f	.
2E	.	2g	2g
=7	=7	=7	=7
2D	1A	2a	1f
1F	.	2f	.
.	1c	1g	2r
2E	.	.	[2cc
=8	=8	=8	=8
2F	1.d	0r	4cc]
.	.	.	4a
2G	.	.	2b-y
2D	.	.	2a
[2F	2c	.	2f
=9	=9	=9	=9
2F]	1c	0r	1.a
4E	.	.	.
4D	.	.	.
2C	2r	.	.
2E	[2c	.	2g
=10	=10	=10	=10
0D	4c]	2r	2.f
.	4A	.	.
.	2B-y	2.f	.
.	.	.	4g
.	2A	.	2.a
.	.	4d	.
.	2F	2f	.
.	.	.	4b-y
=11	=11	=11	=11
2r	1.A	1e	1cc
2.c	.	.	.
.	.	2c	1r
4A	.	.	.
2B-y	2G	[2d	.
=12	=12	=12	=12
2A	2F	2d]	1r
2F	1f	2c	.
[1A	.	1c	2r
.	2e	.	[2cc
=13	=13	=13	=13
2A]	2f	1r	2cc]
2G	2g	.	2b-y
2F	2c	2r	2cc
2D	[2f	[2a	2dd
=14	=14	=14	=14
2.F	2f]	2a]	2a
.	4e	4g	1cc
4G	4d	4f	.
4A	2c	2e	.
4B-y	.	.	.
[2c	2e	2c	4b-y
.	.	.	4a
=15	=15	=15	=15
2c]	1d	4d	2g
.	.	4e	.
2B-y	.	4f	2b-y
.	.	4d	.
2c	1c	2e	1a
2A	.	[2f	.
=16	=16	=16	=16
1B-y	0r	2f]	0g
.	.	4e	.
.	.	4d	.
1c	.	1e	.
=17	=17	=17	=17
2r	1r	0f	1.cc
1F	.	.	.
.	[1c	.	.
2F	.	.	2a
=18	=18	=18	=18
1F	2c]	1r	4a
.	.	.	4g
.	2A	.	4a
.	.	.	4b-y
1F	1A	[1f	2cc
.	.	.	2a
=19	=19	=19	=19
0BB-y	1.B-y	2f]	1.dd
.	.	2d	.
.	.	1d	.
.	4A	.	4cc
.	4G	.	4b-y
=20	=20	=20	=20
0r	2A	1.f	2cc
.	2B-y	.	2dd
.	4A	.	2.cc
.	4G	.	.
.	4A	4e	.
.	4B-y	4d	4b-y
=21	=21	=21	=21
0r	2c	2e	2g
.	2F	2f	2a
.	1G	1d	4b-y
.	.	.	4a
.	.	.	4g
.	.	.	4f
=22	=22	=22	=22
1.c	1r	1.g	0e
.	[1c	.	.
2A	.	[2a	.
=23	=23	=23	=23
1A	2c]	2a]	0r
.	2c	2f	.
[1B-y	[1d	[1f	.
=24	=24	=24	=24
2B-]	2d]	1f]	0r
4A	4c	.	.
4G	4B-y	.	.
2A	2c	2r	.
2B-y	2d	[2f	.
=25	=25	=25	=25
1G	1B-y	2f]	2r
.	.	2e	1b-y
1F	1c	2.f	.
.	.	.	2a
.	.	4e	.
=26	=26	=26	=26
1BB-y	0r	2d	2.b-y
.	.	2f	.
.	.	.	4a
1r	.	2e	2g
.	.	2d	2b-y
=27	=27	=27	=27
0r	0r	4c	2a
.	.	4d	.
.	.	4e	2g
.	.	4c	.
.	.	4d	4f
.	.	4e	4g
.	.	4f	4a
.	.	4d	4f
=28	=28	=28	=28
0r	1r	4e	4g
.	.	4f	4a
.	.	4g	4b-y
.	.	4e	4cc
.	2r	1f	2dd
.	[2f	.	[2cc
=29	=29	=29	=29
2r	2f]	1d	2cc]
1B-y	2d	.	2bnXi
.	2.f	1c	1cc
2A	.	.	.
.	4e	.	.
=30	=30	=30	=30
2.B-y	2d	0r	1r
.	2f	.	.
4A	.	.	.
2G	2e	.	2.g
2B-y	2d	.	.
.	.	.	4g
=31	=31	=31	=31
2A	2c	0r	2f
1G	1d	.	2g
.	.	.	2b-y
2F	2f	.	2a
=32	=32	=32	=32
2G	2e	0r	1g
1A	1d	.	.
.	.	.	1f
2A	2c	.	.
=33	=33	=33	=33
2G	2B-y	2.d	0r
2.F	2.A	.	.
.	.	4d	.
.	.	2c	.
4A	4c	.	.
2G	2B-y	2d	.
=34	=34	=34	=34
2F	1A	2f	0r
1c	.	2e	.
.	2r	1d	.
2B-y	2G	.	.
=35	=35	=35	=35
2c	2A	2c	2r
2C	2c	2r	2.g
1D	2B-y	2.d	.
.	.	.	4g
.	2A	.	2f
.	.	4d	.
=36	=36	=36	=36
2E	1G	2c	2g
2G	.	2d	2b-y
2F	2.c	2f	2a
2C	.	2e	[2g
.	4B-y	.	.
=37	=37	=37	=37
2D	2A	1d	4g]
.	.	.	4f
2BB-y	2B-y	.	1f
1C	1G	1c	.
.	.	.	2e
=38	=38	=38	=38
0Fl	0Fl	0cl	0fl
=39||	=39||	=39||	=39||
*M2/1	*M2/1	*M2/1	*M2/1
*met(C|)	*met(C|)	*met(C|)	*met(C|)
!!section: Pleni sunt
!!!OMD: Pleni sunt
0r	0c	0r	0r
=40	=40	=40	=40
0r	1A	0r	0r
.	1c	.	.
=41	=41	=41	=41
0F	2d	0r	0r
.	2.c	.	.
.	4B-y	.	.
.	4c	.	.
.	4A	.	.
=42	=42	=42	=42
1D	2B-y	0r	0r
.	1A	.	.
1F	.	.	.
.	4G	.	.
.	4F	.	.
=43	=43	=43	=43
2G	2B-y	0r	0r
2.F	2c	.	.
.	1d	.	.
4E	.	.	.
4F	.	.	.
4D	.	.	.
=44	=44	=44	=44
2E	0c	0r	0r
2.F	.	.	.
4G	.	.	.
[2A	.	.	.
=45	=45	=45	=45
2A]	1c	0r	0r
4G	.	.	.
4F	.	.	.
2B-y	2.d	.	.
2A	.	.	.
.	4c	.	.
=46	=46	=46	=46
1G	2d	0r	0r
.	2e	.	.
[1F	1f	.	.
=47	=47	=47	=47
1F]	2r	0r	0r
.	2F	.	.
1r	2.A	.	.
.	4G	.	.
=48	=48	=48	=48
0F	2A	0r	0r
.	2B-y	.	.
.	2c	.	.
.	4d	.	.
.	4c	.	.
=49	=49	=49	=49
1D	4d	0r	0r
.	4e	.	.
.	2.f	.	.
1F	.	.	.
.	4e	.	.
.	[2d	.	.
=50	=50	=50	=50
1.G	4d]	0r	0r
.	4c	.	.
.	4B-y	.	.
.	4A	.	.
.	2B-y	.	.
2F	2c	.	.
=51	=51	=51	=51
[0F	1A	0r	0r
.	2r	.	.
.	2c	.	.
=52	=52	=52	=52
0F]	2d	0r	0r
.	2c	.	.
.	2A	.	.
.	[2c	.	.
=53	=53	=53	=53
2r	2c]	0r	0r
2F	2d	.	.
2G	2e	.	.
2F	2c	.	.
=54	=54	=54	=54
2D	1f	0r	0r
1F	.	.	.
.	2d	.	.
2G	[2e	.	.
=55	=55	=55	=55
2A	4e]	0r	0r
.	4c	.	.
2F	2.f	.	.
2.B-y	.	.	.
.	4e	.	.
.	4d	.	.
4A	4c	.	.
=56	=56	=56	=56
2G	4B-y	0r	0r
.	4A	.	.
2.B-y	2.d	.	.
4A	4c	.	.
[2G	4B-y	.	.
.	4A	.	.
=57	=57	=57	=57
4G]	2G	0r	0r
4F	.	.	.
4E	2.d	.	.
4D	.	.	.
2E	.	.	.
.	4c	.	.
2F	[2c	.	.
=58	=58	=58	=58
1D	2c]	0r	0r
.	2BnXi	.	.
1C	[1c	.	.
=59	=59	=59	=59
1r	1c]	0r	0r
2.F	1r	.	.
4D	.	.	.
=60	=60	=60	=60
2E	0c	0r	0r
2F	.	.	.
2C	.	.	.
[2F	.	.	.
=61	=61	=61	=61
2F]	1A	0r	0r
2D	.	.	.
2E	1c	.	.
2F	.	.	.
=62	=62	=62	=62
2.BB-y	1.d	0r	0r
4C	.	.	.
4D	.	.	.
4E	.	.	.
[2F	2c	.	.
=63	=63	=63	=63
2F]	0c	0r	0r
2E	.	.	.
2F	.	.	.
2C	.	.	.
=64	=64	=64	=64
2D	2r	0r	0r
2E	1c	.	.
1F	.	.	.
.	2A	.	.
=65	=65	=65	=65
1r	2B-y	0r	0r
.	1A	.	.
2.F	.	.	.
.	2F	.	.
4D	.	.	.
=66	=66	=66	=66
2E	2.c	0r	0r
2F	.	.	.
.	4A	.	.
2BB-y	2B-y	.	.
2C	2A	.	.
=67	=67	=67	=67
2D	1F	0r	0r
1F	.	.	.
.	1G	.	.
2E	.	.	.
=68	=68	=68	=68
0Fl	0Fl	0r	0r
=69||	=69||	=69||	=69||
*M2/1	*M2/1	*M2/1	*M2/1
*met(C|)	*met(C|)	*met(C|)	*met(C|)
!!section: Osanna
!!!OMD: Osanna
[0F	0c	0f	[0a
=70	=70	=70	=70
0F]	1A	1d	0a]
.	1c	1f	.
=71	=71	=71	=71
1.B-y	1.d	1.g	1.b-y
2F	2c	2f	2a
=72	=72	=72	=72
[0F	0c	1f	0a
.	.	2r	.
.	.	2c	.
=73	=73	=73	=73
0F]	2r	2d	1r
.	2c	2.f	.
.	2d	.	2r
.	.	4g	.
.	[2f	2a	2cc
=74	=74	=74	=74
1r	4f]	2f	2dd
.	4e	.	.
.	4d	2a	1ff
.	4c	.	.
2r	2B-y	1g	.
2C	2c	.	2ee
=75	=75	=75	=75
2D	1A	1.f	2dd
2.F	.	.	2.cc
.	2r	.	.
4G	.	.	4b-y
2A	[2c	2e	4a
.	.	.	4g
=76	=76	=76	=76
1F	2c]	0f	0a
.	2A	.	.
2r	2c	.	.
2D	2d	.	.
=77	=77	=77	=77
2.A	1c	1.e	2r
.	.	.	1cc
4B-y	.	.	.
2c	1r	.	.
2d	.	2f	2a
=78	=78	=78	=78
2c	0r	2e	2cc
1B-y	.	2d	2dd
.	.	2.f	1cc
4A	.	.	.
4G	.	4e	.
=79	=79	=79	=79
2A	2r	2c	2.cc
2F	1c	2f	.
.	.	.	4b-y
[1F	.	2r	4a
.	.	.	4g
.	2A	[2f	[2cc
=80	=80	=80	=80
1F]	2.c	4f]	2cc]
.	.	4e	.
.	.	2c	2a
.	4B-y	.	.
1r	2G	2e	2.b-y
.	[2B-y	[2d	.
.	.	.	4a
=81	=81	=81	=81
1r	4B-]	4d]	2f
.	4A	4c	.
.	2F	1f	2a
2r	1c	.	1g
2C	.	2e	.
=82	=82	=82	=82
1D	2A	2.d	1f
.	2.B-y	.	.
.	.	4c	.
2BB-y	.	4d	2g
.	4A	4e	.
[2D	2F	[2f	[2a
=83	=83	=83	=83
4D]	1A	4f]	4a]
4E	.	4e	4g
2F	.	2d	1f
1C	1G	1c	.
.	.	.	2e
=84	=84	=84	=84
*M3/1	*M3/1	*M3/1	*M3/1
*met(3)	*met(3)	*met(3)	*met(3)
0F	0.r	0.r	1f
.	.	.	1a
1G	.	.	1b-y
=85	=85	=85	=85
1.A	0.r	0.r	1.cc
2B-y	.	.	2b-y
1c	.	.	1g
=86	=86	=86	=86
1F	0.r	0f	1a
0B-y	.	.	0dd
.	.	1g	.
=87	=87	=87	=87
1A	0.r	1.a	1cc
1F	.	.	2ff
.	.	2g	2ee
1B-y	.	1f	2dd
.	.	.	2cc
=88	=88	=88	=88
1c	0.r	1e	0cc
0G	.	0d	.
.	.	.	1bnXi
=89	=89	=89	=89
0.r	1F	1c	0cc
.	1A	1f	.
.	1B-y	1d	1b-y
=90	=90	=90	=90
0.r	1.c	1.e	1.g
.	2A	2f	2a
.	1G	1g	1b-y
=91	=91	=91	=91
0F	1A	0f	1cc
.	0d	.	1a
1G	.	1r	1b-y
=92	=92	=92	=92
1.A	1c	1e	0cc
.	2f	0a	.
2G	2e	.	.
1F	2d	.	1r
.	2c	.	.
=93	=93	=93	=93
1E	0c	1g	0.r
0D	.	0f	.
.	1BnXi	.	.
=94	=94	=94	=94
*M2/1	*M2/1	*M2/1	*M2/1
*met(C|)	*met(C|)	*met(C|)	*met(C|)
0C	0c	0e	0g
=95	=95	=95	=95
1F	1A	1c	1a
1BB-y	[1B-y	1d	1f
=96	=96	=96	=96
2.E-X	1B-]	0e-X	0g
4D	.	.	.
1C	1c	.	.
=97	=97	=97	=97
2.BB-y	1.d	0f	1.b-y
4C	.	.	.
4D	.	.	.
4E	.	.	.
[2F	2c	.	2a
=98	=98	=98	=98
4F]	1.B-y	1r	1g
4E	.	.	.
4E	.	.	.
4D	.	.	.
[1F	.	[1c	1f
.	4A	.	.
.	4G	.	.
=99	=99	=99	=99
1F]	0A	1c]	2r
.	.	.	2ff
1D	.	1d	4ff
.	.	.	4ee
.	.	.	4dd
.	.	.	4cc
=100	=100	=100	=100
1G	2r	1B-y	1dd
.	1G	.	.
2C	.	[1c	2.cc
[2F	2A	.	.
.	.	.	4b-y
=101	=101	=101	=101
2F]	2F	1c]	4a
.	.	.	4g
2E-X	2G	.	2cc
[1E-i	[1B-y	[1e-X	4b-y
.	.	.	4a
.	.	.	4g
.	.	.	4f
=102	=102	=102	=102
2E-]	2B-]	2e-]	2g
2F	2A	2d	1f
1C	1G	1c	.
.	.	.	2e
=103	=103	=103	=103
1D	[0Fl	1B-y	[0fl
1BB-y	.	1d	.
=104	=104	=104	=104
0Fl	0F]	0cl	0f]
=105||	=105||	=105||	=105||
*M2/1	*M2/1	*M2/1	*M2/1
*met(C|)	*met(C|)	*met(C|)	*met(C|)
!!section: Benedictus
!!!OMD: Benedictus
0r	0r	1.f	0r
.	.	2d	.
=106	=106	=106	=106
0r	0r	1f	0r
.	.	2.B-y	.
.	.	4c	.
=107	=107	=107	=107
0r	0r	4d	1r
.	.	4e	.
.	.	1f	.
.	.	.	[1cc
.	.	4e	.
.	.	4d	.
=108	=108	=108	=108
0r	0r	2e	2cc]
.	.	1f	2a
.	.	.	1cc
.	.	2e	.
=109	=109	=109	=109
0r	0r	2d	2.f
.	.	2B-y	.
.	.	.	4g
.	.	2.c	4a
.	.	.	4b-y
.	.	.	[2cc
.	.	4d	.
=110	=110	=110	=110
0r	0r	2e	2cc]
.	.	2f	4b-y
.	.	.	4a
.	.	2d	2b-y
.	.	2c	[2cc
=111	=111	=111	=111
0r	0r	2f	2cc]
.	.	2g	2b-y
.	.	2c	2a
.	.	[2f	2f
=112	=112	=112	=112
1.c	0r	2f]	1g
.	.	4e	.
.	.	4d	.
.	.	[1e	2r
2A	.	.	2a
=113	=113	=113	=113
1c	0r	1e]	2g
.	.	.	2.cc
2.F	.	1r	.
.	.	.	4b-y
.	.	.	[2a
4G	.	.	.
=114	=114	=114	=114
4A	0r	2.c	2a]
4B-y	.	.	.
1c	.	.	2g
.	.	4d	.
.	.	2e	2.a
4B-y	.	2f	.
4A	.	.	4g
=115	=115	=115	=115
2B-y	0r	2d	2f
1c	.	2c	2e
.	.	2f	1d
2B-y	.	2g	.
=116	=116	=116	=116
2A	0r	2e	2c
2F	.	2f	1cc
1G	.	1d	.
.	.	.	2bnXi
=117	=117	=117	=117
1r	0r	1c	[0cc
2.C	.	2r	.
.	.	[2c	.
4D	.	.	.
=118	=118	=118	=118
2E	0r	2c]	1cc]
2F	.	2A	.
2D	.	2B-y	1r
2C	.	2c	.
=119	=119	=119	=119
2F	0r	1d	0r
2G	.	.	.
2C	.	2.c	.
[2c	.	.	.
.	.	4d	.
=120	=120	=120	=120
2c]	0r	2e	0r
4B-y	.	2f	.
4A	.	.	.
2B-y	.	2d	.
2A	.	2c	.
=121	=121	=121	=121
2r	0r	2.f	0r
2.F	.	.	.
.	.	4e	.
.	.	2d	.
4G	.	.	.
2A	.	2c	.
=122	=122	=122	=122
2.B-y	0r	0d	2.f
4A	.	.	4g
2F	.	.	2a
2B-y	.	.	2b-y
=123	=123	=123	=123
2c	0r	0r	2g
2F	.	.	2f
2r	.	.	2b-y
2F	.	.	2cc
=124	=124	=124	=124
1B-y	0r	0r	2.f
.	.	.	4g
1A	.	.	4a
.	.	.	4b-y
.	.	.	[2cc
=125	=125	=125	=125
2.F	0r	0r	4cc]
.	.	.	4b-y
.	.	.	1a
4G	.	.	.
2A	.	.	.
2B-y	.	.	4g
.	.	.	4f
=126	=126	=126	=126
2G	0r	2r	2b-y
2F	.	1f	2a
2B-y	.	.	1g
2c	.	2e	.
=127	=127	=127	=127
0F	0r	2d	1f
.	.	2c	.
.	.	2r	1r
.	.	[2f	.
=128	=128	=128	=128
0r	0r	2f]	1cc
.	.	2e	.
.	.	2d	2b-y
.	.	[2c	2a
=129	=129	=129	=129
0r	0r	2c]	2.g
.	.	4B-y	.
.	.	4A	4a
.	.	2G	4b-y
.	.	.	4cc
.	.	2g	[2dd
=130	=130	=130	=130
0r	0r	2f	2dd]
.	.	2e	1cc
.	.	1d	.
.	.	.	2bnXi
=131	=131	=131	=131
1r	0r	2c	0cc
.	.	2.f	.
1F	.	.	.
.	.	4g	.
.	.	2a	.
=132	=132	=132	=132
2E	0r	2g	2r
2D	.	2f	1ff
2C	.	1g	.
2c	.	.	2ee
=133	=133	=133	=133
2B-y	0r	2r	2dd
2A	.	2c	1cc
1G	.	2.d	.
.	.	.	2b-y
.	.	4e	.
=134	=134	=134	=134
2F	0r	2f	2a
2E	.	1g	2g
1F	.	.	1a
.	.	[2f	.
=135	=135	=135	=135
1G	0r	2f]	1b-y
.	.	2e	.
1F	.	1f	2a
.	.	.	[2cc
=136	=136	=136	=136
2r	0r	2e	2cc]
2G	.	2d	2b-y
2A	.	2c	2a
[2c	.	2e	[2g
=137	=137	=137	=137
2c]	0r	1d	2g]
2B-y	.	.	2b-y
2c	.	1c	2a
2C	.	.	[2g
=138	=138	=138	=138
2E-X	0r	2B-y	4g]
.	.	.	4f
2F	.	2A	1f
1G	.	2.B-y	.
.	.	.	2e
.	.	4c	.
=139	=139	=139	=139
2r	0r	2d	0f
2.F	.	2c	.
.	.	2r	.
4G	.	.	.
2A	.	[2f	.
=140	=140	=140	=140
2B-y	0r	2f]	2r
2c	.	2e	1cc
2F	.	2d	.
2G	.	2d	2b-y
=141	=141	=141	=141
2A	0r	2c	2a
1c	.	2e	1g
.	.	2d	.
2B-y	.	[2f	2b-y
=142	=142	=142	=142
1c	0r	2f]	2a
.	.	2e	1g
2B-y	.	2d	.
2A	.	2c	[2f
=143	=143	=143	=143
1G	0r	2r	2f]
.	.	2g	2e
1F	.	2a	2f
.	.	2f	[2ff
=144	=144	=144	=144
1c	0r	1g	2ff]
.	.	.	2ee
2B-y	.	2r	2dd
2A	.	2c	[2cc
=145	=145	=145	=145
1G	0r	2d	2cc]
.	.	2B-y	2b-y
2F	.	2c	2a
2E	.	2g	2g
=146	=146	=146	=146
2D	0r	2a	1f
1F	.	2f	.
.	.	1g	1b-y
2E	.	.	.
=147	=147	=147	=147
1F	0r	1c	2a
.	.	.	2f
1BB-y	.	2d	1b-y
.	.	2B-y	.
=148	=148	=148	=148
0Fl	0r	0cl	0al
==	==	==	==
*-	*-	*-	*-
!!!system-decoration: s1,s2,s3,s4
!!!RDF**kern: i = editorial accidental
!!!RDF**kern: l = terminal long
!!!ENC: David Nivarlet
!!!END: 2025/12/06
!!!EED: Benjamin Ory
!!!EEV: 2026/03/12
!!!YEC: Copyright 2026 Benjamin Ory, All Rights Reserved
!!!ONB: Translated from MusicXML on 2026/03/12
